;FLAVOR:Marlin
;TIME:23081
;Filament used: 12.6395m
;Layer height: 0.2
;MINX:43.5
;MINY:49
;MINZ:0.2
;MAXX:176.488
;MAXY:171
;MAXZ:11
;Generated with Cura_SteamEngine 4.7.1
M140 S50
M105
M190 S50
M104 S210
M105
M109 S210
M82 ;absolute extrusion mode
; Ender 3 Custom Start G-code
G92 E0 ; Reset Extruder
G28 ; Home all axes
G1 Z2.0 F3000 ; Move Z Axis up little to prevent scratching of Heat Bed
G1 X0.1 Y20 Z0.3 F5000.0 ; Move to start position
G1 X0.1 Y200.0 Z0.3 F1500.0 E15 ; Draw the first line
G1 X0.4 Y200.0 Z0.3 F5000.0 ; Move to side a little
G1 X0.4 Y20 Z0.3 F1500.0 E30 ; Draw the second line
G92 E0 ; Reset Extruder
G1 Z2.0 F3000 ; Move Z Axis up little to prevent scratching of Heat Bed
G1 X5 Y20 Z0.3 F5000.0 ; Move over to prevent blob squish
G92 E0
G92 E0
G1 F1500 E-6.5
;LAYER_COUNT:55
;LAYER:0
M107
G0 F6000 X47.386 Y51.627 Z0.2
;TYPE:SKIRT
G1 F1500 E0
G1 F1200 X48.126 Y51.051 E0.03119
G1 X48.912 Y50.539 E0.06239
G1 X49.739 Y50.097 E0.09358
G1 X50.601 Y49.727 E0.12478
G1 X51.491 Y49.431 E0.15597
G1 X52.403 Y49.213 E0.18716
G1 X53.33 Y49.072 E0.21835
G1 X54.201 Y49.013 E0.24738
G1 X54.522 Y49.004 E0.25806
G1 X54.83 Y49 E0.26831
G1 X123.793 Y49 E2.56203
G1 X123.95 Y49.001 E2.56725
G1 X124.651 Y49.011 E2.59057
G1 X125.587 Y49.064 E2.62175
G1 X126.516 Y49.197 E2.65296
G1 X127.429 Y49.409 E2.68414
G1 X128.322 Y49.697 E2.71534
G1 X129.186 Y50.061 E2.74653
G1 X130.017 Y50.497 E2.77774
G1 X130.807 Y51.002 E2.80893
G1 X131.551 Y51.572 E2.8401
G1 X132.244 Y52.204 E2.87129
G1 X132.881 Y52.893 E2.9025
G1 X133.457 Y53.633 E2.93369
G1 X133.939 Y54.371 E2.96301
G1 X134.493 Y55.3 E2.99899
G1 X135.879 Y57.546 E3.08677
G1 X137.226 Y59.6 E3.16846
G1 X138.691 Y61.698 E3.25357
G1 X140.18 Y63.71 E3.33682
G1 X141.719 Y65.669 E3.41968
G1 X143.356 Y67.636 E3.5048
G1 X145.006 Y69.511 E3.58787
G1 X146.727 Y71.356 E3.67179
G1 X148.485 Y73.136 E3.755
G1 X150.32 Y74.893 E3.83949
G1 X152.166 Y76.565 E3.92233
G1 X154.067 Y78.191 E4.00553
G1 X156.056 Y79.794 E4.0905
G1 X158.052 Y81.313 E4.17392
G1 X160.117 Y82.795 E4.25846
G1 X162.213 Y84.211 E4.34259
G1 X163.118 Y84.804 E4.37858
G1 X163.88 Y85.351 E4.40978
G1 X164.593 Y85.961 E4.44099
G1 X165.251 Y86.629 E4.47217
G1 X165.85 Y87.351 E4.50338
G1 X166.385 Y88.121 E4.53456
G1 X166.852 Y88.934 E4.56575
G1 X167.249 Y89.784 E4.59695
G1 X167.571 Y90.665 E4.62815
G1 X167.818 Y91.57 E4.65935
G1 X167.933 Y92.149 E4.67898
G1 X167.94 Y92.192 E4.68043
G1 X168.419 Y94.747 E4.76689
G1 X168.958 Y97.236 E4.85159
G1 X169.556 Y99.662 E4.9347
G1 X170.225 Y102.072 E5.01789
G1 X170.972 Y104.504 E5.10251
G1 X171.771 Y106.862 E5.18531
G1 X172.652 Y109.241 E5.26969
G1 X173.599 Y111.589 E5.3539
G1 X174.353 Y113.333 E5.41709
G1 X174.656 Y114.013 E5.44185
G1 X175.001 Y114.885 E5.47304
G1 X175.27 Y115.783 E5.50422
G1 X175.406 Y116.392 E5.52498
G1 X175.481 Y116.778 E5.53805
G1 X175.535 Y117.077 E5.54816
G1 X176.229 Y121.263 E5.68929
G1 X176.366 Y122.161 E5.7195
G1 X176.467 Y123.093 E5.75068
G1 X176.488 Y124.031 E5.78189
G1 X176.394 Y125.262 E5.82295
G1 X176.356 Y125.547 E5.83251
G1 X176.304 Y125.892 E5.84412
G1 X175.561 Y130.37 E5.99509
G1 X175.435 Y131.067 E6.01865
G1 X175.229 Y131.982 E6.04984
G1 X174.945 Y132.876 E6.08104
G1 X174.478 Y133.971 E6.12064
G1 X174.311 Y134.31 E6.13321
G1 X174.148 Y134.627 E6.14506
G1 X172.02 Y138.614 E6.29538
G1 X171.693 Y139.206 E6.31787
G1 X171.205 Y140.006 E6.34904
G1 X170.65 Y140.763 E6.38026
G1 X169.801 Y141.706 E6.42246
G1 X169.132 Y142.368 E6.45376
G1 X168.994 Y142.502 E6.46016
G1 X166.205 Y145.167 E6.58847
G1 X165.541 Y145.783 E6.61859
G1 X164.827 Y146.39 E6.64976
G1 X164.062 Y146.934 E6.68098
G1 X163.298 Y147.388 E6.71054
G1 X162.964 Y147.563 E6.72308
G1 X162.333 Y147.879 E6.74655
G1 X158.496 Y149.746 E6.88848
G1 X157.232 Y150.341 E6.93494
G1 X154.898 Y151.478 E7.02129
G1 X152.654 Y152.649 E7.10548
G1 X150.47 Y153.87 E7.1887
G1 X148.289 Y155.171 E7.27317
G1 X146.186 Y156.507 E7.35604
G1 X144.103 Y157.915 E7.43966
G1 X142.049 Y159.39 E7.52377
G1 X140.043 Y160.919 E7.60766
G1 X138.088 Y162.498 E7.69124
G1 X136.162 Y164.143 E7.77548
G1 X134.335 Y165.799 E7.8575
G1 X133.186 Y166.914 E7.91075
G1 X132.924 Y167.147 E7.92241
G1 X132.113 Y167.926 E7.95981
G1 X131.41 Y168.546 E7.99099
G1 X130.656 Y169.104 E8.02219
G1 X129.857 Y169.595 E8.05338
G1 X129.019 Y170.017 E8.08459
G1 X128.149 Y170.366 E8.11576
G1 X127.251 Y170.639 E8.14698
G1 X126.334 Y170.835 E8.17817
G1 X125.404 Y170.952 E8.20934
G1 X124.833 Y170.985 E8.22837
G1 X124.507 Y170.995 E8.23922
G1 X124.17 Y171 E8.25043
G1 X55.207 Y171 E10.54414
G1 X54.367 Y170.99 E10.57209
G1 X53.431 Y170.938 E10.60326
G1 X52.502 Y170.806 E10.63447
G1 X51.588 Y170.596 E10.66567
G1 X50.695 Y170.309 E10.69686
G1 X49.83 Y169.946 E10.72806
G1 X48.999 Y169.512 E10.75925
G1 X48.208 Y169.008 E10.79044
G1 X47.463 Y168.438 E10.82164
G1 X46.769 Y167.807 E10.85284
G1 X46.132 Y167.12 E10.884
G1 X45.555 Y166.38 E10.91521
G1 X45.043 Y165.594 E10.94641
G1 X44.6 Y164.767 E10.97761
G1 X44.229 Y163.906 E11.00879
G1 X43.933 Y163.016 E11.03999
G1 X43.714 Y162.104 E11.07119
G1 X43.573 Y161.177 E11.10237
G1 X43.513 Y160.288 E11.13201
G1 X43.504 Y159.955 E11.14309
G1 X43.5 Y159.658 E11.15297
G1 X43.5 Y60.674 E14.44519
G1 X43.51 Y59.86 E14.47226
G1 X43.563 Y58.924 E14.50344
G1 X43.695 Y57.995 E14.53465
G1 X43.906 Y57.081 E14.56585
G1 X44.194 Y56.189 E14.59703
G1 X44.557 Y55.324 E14.62823
G1 X44.992 Y54.493 E14.65943
G1 X45.496 Y53.703 E14.69059
G1 X46.066 Y52.958 E14.72179
G1 X46.698 Y52.264 E14.75301
G1 X47.386 Y51.627 E14.7842
G0 F6000 X47.774 Y51.823
G1 F1200 X48.51 Y51.27 E14.81482
G1 X49.291 Y50.782 E14.84545
G1 X50.111 Y50.364 E14.87606
G1 X50.965 Y50.019 E14.90669
G1 X51.845 Y49.749 E14.93731
G1 X52.745 Y49.557 E14.96792
G1 X53.659 Y49.443 E14.99855
G1 X54.212 Y49.413 E15.01697
G1 X54.533 Y49.404 E15.02765
G1 X54.83 Y49.4 E15.03753
G1 X123.793 Y49.4 E17.33125
G1 X124.645 Y49.411 E17.35959
G1 X125.564 Y49.464 E17.39021
G1 X126.475 Y49.597 E17.42083
G1 X127.371 Y49.808 E17.45145
G1 X128.246 Y50.096 E17.48208
G1 X129.092 Y50.459 E17.5127
G1 X129.903 Y50.894 E17.54331
G1 X130.674 Y51.398 E17.57395
G1 X131.398 Y51.967 E17.60458
G1 X132.07 Y52.596 E17.63519
G1 X132.685 Y53.281 E17.66581
G1 X133.238 Y54.017 E17.69643
G1 X133.595 Y54.576 E17.71849
G1 X134.152 Y55.509 E17.75463
G1 X135.521 Y57.728 E17.84135
G1 X136.907 Y59.842 E17.92543
G1 X138.357 Y61.919 E18.00968
G1 X139.86 Y63.949 E18.09369
G1 X141.43 Y65.948 E18.17823
G1 X143.046 Y67.89 E18.26226
G1 X144.714 Y69.785 E18.34622
G1 X146.432 Y71.628 E18.43002
G1 X148.206 Y73.423 E18.51396
G1 X150.038 Y75.178 E18.59834
G1 X151.904 Y76.866 E18.68203
G1 X153.818 Y78.504 E18.76582
G1 X155.813 Y80.112 E18.85105
G1 X157.799 Y81.624 E18.93407
G1 X159.866 Y83.107 E19.01868
G1 X162.057 Y84.588 E19.10664
G1 X162.899 Y85.139 E19.14011
G1 X163.647 Y85.676 E19.17073
G1 X164.345 Y86.277 E19.20137
G1 X164.988 Y86.935 E19.23197
G1 X165.572 Y87.647 E19.2626
G1 X166.092 Y88.407 E19.29322
G1 X166.544 Y89.209 E19.32384
G1 X166.924 Y90.047 E19.35445
G1 X167.23 Y90.916 E19.38509
G1 X167.539 Y92.217 E19.42956
G1 X168.03 Y94.841 E19.51835
G1 X168.565 Y97.311 E19.60241
G1 X169.169 Y99.759 E19.68627
G1 X169.84 Y102.182 E19.7699
G1 X170.587 Y104.612 E19.85445
G1 X171.401 Y107.012 E19.93874
G1 X172.286 Y109.404 E20.02357
G1 X173.226 Y111.735 E20.10717
G1 X174.012 Y113.551 E20.17298
G1 X174.29 Y114.176 E20.19573
G1 X174.628 Y115.032 E20.22634
G1 X174.89 Y115.915 E20.25698
G1 X175.013 Y116.468 E20.27582
G1 X175.088 Y116.854 E20.2889
G1 X175.14 Y117.142 E20.29863
G1 X175.834 Y121.328 E20.43976
G1 X175.97 Y122.22 E20.46977
G1 X176.069 Y123.136 E20.50041
G1 X176.087 Y124.056 E20.53102
G1 X175.997 Y125.209 E20.56948
G1 X175.959 Y125.494 E20.57905
G1 X175.909 Y125.826 E20.59021
G1 X175.167 Y130.299 E20.74102
G1 X175.041 Y130.996 E20.76458
G1 X174.838 Y131.894 E20.7952
G1 X174.558 Y132.771 E20.82582
G1 X174.119 Y133.794 E20.86284
G1 X173.952 Y134.133 E20.87541
G1 X173.795 Y134.439 E20.88685
G1 X171.67 Y138.42 E21.03694
G1 X171.343 Y139.012 E21.05944
G1 X170.863 Y139.798 E21.09007
G1 X170.317 Y140.539 E21.12068
G1 X169.52 Y141.422 E21.16025
G1 X168.851 Y142.084 E21.19155
G1 X168.718 Y142.213 E21.19771
G1 X165.929 Y144.878 E21.32602
G1 X165.805 Y144.995 E21.33169
G1 X165.27 Y145.49 E21.35593
G1 X164.568 Y146.085 E21.38653
G1 X163.816 Y146.617 E21.41717
G1 X163.108 Y147.036 E21.44454
G1 X162.784 Y147.206 E21.45671
G1 X162.158 Y147.52 E21.48
G1 X158.321 Y149.387 E21.62192
G1 X157.096 Y149.963 E21.66695
G1 X154.688 Y151.135 E21.75602
G1 X152.48 Y152.288 E21.83887
G1 X150.249 Y153.536 E21.92389
G1 X148.117 Y154.808 E22.00646
G1 X145.953 Y156.182 E22.09172
G1 X143.851 Y157.603 E22.17611
G1 X141.818 Y159.063 E22.25936
G1 X139.812 Y160.592 E22.34325
G1 X137.822 Y162.199 E22.42832
G1 X135.916 Y163.827 E22.51169
G1 X134.056 Y165.513 E22.59519
G1 X132.908 Y166.627 E22.6484
G1 X132.638 Y166.867 E22.66041
G1 X131.836 Y167.637 E22.69739
G1 X131.145 Y168.245 E22.728
G1 X130.404 Y168.791 E22.75862
G1 X129.618 Y169.271 E22.78925
G1 X128.793 Y169.68 E22.81988
G1 X127.936 Y170.016 E22.85049
G1 X127.053 Y170.277 E22.88112
G1 X126.151 Y170.46 E22.91173
G1 X124.821 Y170.585 E22.95616
G1 X124.495 Y170.595 E22.96701
G1 X124.17 Y170.6 E22.97782
G1 X55.207 Y170.6 E25.27154
G1 X54.372 Y170.59 E25.29931
G1 X53.453 Y170.538 E25.32993
G1 X52.542 Y170.407 E25.36054
G1 X51.646 Y170.197 E25.39115
G1 X50.771 Y169.91 E25.42177
G1 X49.924 Y169.548 E25.45241
G1 X49.112 Y169.114 E25.48303
G1 X48.341 Y168.612 E25.51363
G1 X47.616 Y168.044 E25.54427
G1 X46.943 Y167.415 E25.5749
G1 X46.328 Y166.731 E25.6055
G1 X45.774 Y165.996 E25.63611
G1 X45.286 Y165.215 E25.66674
G1 X44.867 Y164.395 E25.69737
G1 X44.521 Y163.542 E25.72798
G1 X44.251 Y162.662 E25.7586
G1 X44.058 Y161.761 E25.78925
G1 X43.944 Y160.848 E25.81985
G1 X43.913 Y160.277 E25.83887
G1 X43.904 Y159.944 E25.84995
G1 X43.9 Y159.658 E25.85946
G1 X43.9 Y60.674 E29.15168
G1 X43.91 Y59.866 E29.17856
G1 X43.962 Y58.946 E29.20921
G1 X44.094 Y58.035 E29.23982
G1 X44.305 Y57.139 E29.27044
G1 X44.592 Y56.264 E29.30107
G1 X44.955 Y55.418 E29.33169
G1 X45.389 Y54.606 E29.36231
G1 X45.892 Y53.835 E29.39293
G1 X46.461 Y53.111 E29.42356
G1 X47.089 Y52.439 E29.45415
G1 X47.774 Y51.823 E29.48479
G0 F6000 X48.162 Y52.024
G1 F1200 X48.894 Y51.494 E29.51485
G1 X49.669 Y51.031 E29.54487
G1 X50.482 Y50.638 E29.57491
G1 X51.327 Y50.318 E29.60496
G1 X52.196 Y50.075 E29.63497
G1 X53.084 Y49.909 E29.66502
G1 X54.223 Y49.813 E29.70304
G1 X54.544 Y49.804 E29.71372
G1 X54.83 Y49.8 E29.72323
G1 X123.793 Y49.8 E32.01695
G1 X124.639 Y49.811 E32.04509
G1 X125.541 Y49.864 E32.07514
G1 X126.434 Y49.996 E32.10516
G1 X127.313 Y50.207 E32.13523
G1 X128.169 Y50.495 E32.16527
G1 X128.996 Y50.857 E32.1953
G1 X129.788 Y51.291 E32.22533
G1 X130.538 Y51.794 E32.25537
G1 X131.241 Y52.361 E32.28541
G1 X131.891 Y52.987 E32.31542
G1 X132.484 Y53.669 E32.34548
G1 X133.252 Y54.781 E32.39043
G1 X133.811 Y55.718 E32.42672
G1 X135.195 Y57.961 E32.51438
G1 X136.572 Y60.06 E32.59788
G1 X138.04 Y62.164 E32.68321
G1 X139.539 Y64.189 E32.767
G1 X141.106 Y66.184 E32.85138
G1 X142.74 Y68.147 E32.93633
G1 X144.405 Y70.038 E33.02013
G1 X146.172 Y71.934 E33.10633
G1 X147.91 Y73.693 E33.18857
G1 X149.777 Y75.481 E33.27456
G1 X151.639 Y77.166 E33.35808
G1 X153.573 Y78.821 E33.44274
G1 X155.543 Y80.409 E33.5269
G1 X157.586 Y81.964 E33.6123
G1 X159.638 Y83.436 E33.69629
G1 X161.82 Y84.911 E33.78389
G1 X162.68 Y85.474 E33.81808
G1 X163.413 Y86.001 E33.8481
G1 X164.096 Y86.592 E33.87814
G1 X164.724 Y87.241 E33.90818
G1 X165.293 Y87.942 E33.93821
G1 X165.797 Y88.692 E33.96826
G1 X166.233 Y89.482 E33.99828
G1 X166.597 Y90.309 E34.02833
G1 X166.887 Y91.164 E34.05836
G1 X167.145 Y92.284 E34.09658
G1 X167.166 Y92.404 E34.10064
G1 X167.631 Y94.886 E34.18462
G1 X168.179 Y97.419 E34.27082
G1 X168.783 Y99.865 E34.35462
G1 X169.458 Y102.301 E34.43869
G1 X170.201 Y104.722 E34.52292
G1 X171.018 Y107.132 E34.60756
G1 X171.911 Y109.544 E34.69311
G1 X172.854 Y111.881 E34.77692
G1 X173.622 Y113.658 E34.84131
G1 X173.925 Y114.338 E34.86607
G1 X174.256 Y115.179 E34.89613
G1 X174.511 Y116.045 E34.92616
G1 X174.621 Y116.545 E34.94319
G1 X174.696 Y116.931 E34.95626
G1 X174.746 Y117.208 E34.96563
G1 X175.44 Y121.394 E35.10675
G1 X175.575 Y122.28 E35.13656
G1 X175.671 Y123.178 E35.1666
G1 X175.686 Y124.081 E35.19664
G1 X175.601 Y125.156 E35.2325
G1 X175.563 Y125.441 E35.24207
G1 X175.515 Y125.761 E35.25283
G1 X174.799 Y130.081 E35.39847
G1 X174.647 Y130.924 E35.42696
G1 X174.447 Y131.805 E35.45701
G1 X174.171 Y132.665 E35.48705
G1 X173.76 Y133.618 E35.52157
G1 X173.593 Y133.957 E35.53414
G1 X173.442 Y134.25 E35.5451
G1 X171.319 Y138.227 E35.69505
G1 X170.992 Y138.819 E35.71754
G1 X170.521 Y139.589 E35.74756
G1 X169.984 Y140.315 E35.7776
G1 X169.238 Y141.137 E35.81452
G1 X168.442 Y141.924 E35.85175
G1 X165.653 Y144.589 E35.98005
G1 X164.998 Y145.196 E36.00975
G1 X164.309 Y145.779 E36.03977
G1 X163.57 Y146.299 E36.06983
G1 X162.918 Y146.684 E36.09501
G1 X162.604 Y146.848 E36.10679
G1 X161.983 Y147.16 E36.12991
G1 X158.146 Y149.027 E36.27183
G1 X156.9 Y149.613 E36.31763
G1 X154.535 Y150.765 E36.40512
G1 X152.279 Y151.943 E36.48977
G1 X150.071 Y153.177 E36.5739
G1 X147.862 Y154.495 E36.65946
G1 X145.736 Y155.846 E36.74324
G1 X143.64 Y157.262 E36.82737
G1 X141.589 Y158.736 E36.91137
G1 X139.524 Y160.309 E36.99771
G1 X137.574 Y161.884 E37.08108
G1 X135.653 Y163.525 E37.16511
G1 X133.792 Y165.211 E37.24864
G1 X132.629 Y166.34 E37.30255
G1 X132.375 Y166.566 E37.31385
G1 X131.559 Y167.349 E37.35147
G1 X130.881 Y167.945 E37.38149
G1 X130.152 Y168.478 E37.41153
G1 X129.379 Y168.945 E37.44157
G1 X128.568 Y169.342 E37.4716
G1 X127.725 Y169.666 E37.50164
G1 X126.856 Y169.913 E37.53169
G1 X125.969 Y170.083 E37.56172
G1 X124.809 Y170.185 E37.60045
G1 X124.483 Y170.195 E37.6113
G1 X124.17 Y170.2 E37.62171
G1 X55.207 Y170.2 E39.91543
G1 X54.377 Y170.19 E39.94304
G1 X53.476 Y170.139 E39.97306
G1 X52.582 Y170.007 E40.00311
G1 X51.704 Y169.798 E40.03313
G1 X50.847 Y169.511 E40.06319
G1 X50.02 Y169.15 E40.0932
G1 X49.227 Y168.717 E40.12326
G1 X48.476 Y168.216 E40.15328
G1 X47.772 Y167.65 E40.18333
G1 X47.121 Y167.024 E40.21336
G1 X46.528 Y166.343 E40.2434
G1 X45.998 Y165.612 E40.27343
G1 X45.534 Y164.837 E40.30347
G1 X45.14 Y164.024 E40.33352
G1 X44.82 Y163.18 E40.36354
G1 X44.576 Y162.31 E40.3936
G1 X44.41 Y161.422 E40.42364
G1 X44.313 Y160.267 E40.46219
G1 X44.304 Y159.934 E40.47327
G1 X44.3 Y159.658 E40.48245
G1 X44.3 Y60.674 E43.77467
G1 X44.31 Y59.871 E43.80138
G1 X44.362 Y58.969 E43.83144
G1 X44.494 Y58.076 E43.86146
G1 X44.704 Y57.198 E43.89149
G1 X44.991 Y56.341 E43.92155
G1 X45.353 Y55.514 E43.95157
G1 X45.786 Y54.722 E43.98159
G1 X46.288 Y53.971 E44.01164
G1 X46.855 Y53.267 E44.0417
G1 X47.481 Y52.617 E44.07172
G1 X48.162 Y52.024 E44.10175
G1 F1500 E37.60175
G0 F6000 X77.098 Y105.534
G0 X77.098 Y105.999
G1 F1500 E44.10175
G1 F1200 X85.494 Y105.999 E44.381
G1 X85.742 Y106.081 E44.38969
G1 X87.292 Y106.441 E44.44262
G1 X87.837 Y106.527 E44.46097
G1 X88.388 Y106.533 E44.4793
G1 X88.934 Y106.459 E44.49762
G1 X89.463 Y106.307 E44.51593
G1 X89.965 Y106.079 E44.53427
G1 X90.429 Y105.782 E44.55259
G1 X90.845 Y105.421 E44.57091
G1 X91.205 Y105.003 E44.58926
G1 X91.568 Y104.404 E44.61255
G1 X92.215 Y103.076 E44.66169
G1 X95.012 Y100.148 E44.79636
G1 X98.49 Y98.293 E44.92747
G1 X102.306 Y97.66 E45.05612
G1 X106.121 Y98.293 E45.18474
G1 X109.599 Y100.148 E45.31585
G1 X112.395 Y103.075 E45.45048
G1 X114.218 Y106.82 E45.58901
G1 X114.85 Y111 E45.72962
G1 X114.218 Y115.18 E45.87023
G1 X112.395 Y118.925 E46.00876
